svgs/sharp-light/user-visor.svg

<svg xmlns="http://www.w3.org/2000/svg" viewBox="0 0 448 512"><!--! Font Awesome Pro 6.6.0 by @fontawesome - https://fontawesome.com License - https://fontawesome.com/license (Commercial License) Copyright 2024 Fonticons, Inc. --><path d="M224 224c41.8 0 77.4-26.7 90.5-64l-181.1 0c13.2 37.3 48.7 64 90.5 64zm0 32c-59.6 0-109.8-40.8-124-96l-20 0 0-32 0-32 0-32 32 0 1.1 0C135.3 25.7 176.6 0 224 0s88.7 25.7 110.9 64l1.1 0 32 0 0 32 0 32 0 32-20 0c-14.2 55.2-64.3 96-124 96zM152.4 64l143.1 0C278 44.4 252.4 32 224 32s-54 12.4-71.6 32zM43.3 480l361.3 0L360.4 336 87.6 336 43.3 480zM64 304l320 0 54.2 176 9.8 32-33.5 0-381 0L0 512l9.8-32L64 304zM336 96L112 96l0 32 224 0 0-32zM288 456l-8-8 40-88 40 88-8 8-24-24-40 24z"/></svg>

<svg xmlns="http://www.w3.org/2000/svg" viewBox="0 0 448 512"><!--! Font Awesome Pro 6.5.2 by @fontawesome - https://fontawesome.com License - https://fontawesome.com/license (Commercial License) Copyright 2024 Fonticons, Inc. --><path d="M224 224c41.8 0 77.4-26.7 90.5-64H133.5c13.2 37.3 48.7 64 90.5 64zm0 32c-59.6 0-109.8-40.8-124-96H80V128 96 64h32 1.1C135.3 25.7 176.6 0 224 0s88.7 25.7 110.9 64H336h32V96v32 32H348c-14.2 55.2-64.3 96-124 96zM152.4 64H295.6C278 44.4 252.4 32 224 32s-54 12.4-71.6 32zM43.3 480H404.7L360.4 336H87.6L43.3 480zM64 304H384l54.2 176 9.8 32H414.5 33.5 0l9.8-32L64 304zM336 96H112v32H336V96zM288 456l-8-8 40-88 40 88-8 8-24-24-40 24z"/></svg>
